img/iconmonstr-plus-circle-thin.svg

<svg width="24" height="24" xmlns="http://www.w3.org/2000/svg" fill-rule="evenodd" clip-rule="evenodd"><path d="M11.5 0c6.347 0 11.5 5.153 11.5 11.5s-5.153 11.5-11.5 11.5-11.5-5.153-11.5-11.5 5.153-11.5 11.5-11.5zm0 1c5.795 0 10.5 4.705 10.5 10.5s-4.705 10.5-10.5 10.5-10.5-4.705-10.5-10.5 4.705-10.5 10.5-10.5zm.5 10h6v1h-6v6h-1v-6h-6v-1h6v-6h1v6z"/></svg>

<svg width="24" height="24" viewBox="0 0 24 24" fill="none" xmlns="http://www.w3.org/2000/svg">
<path fill-rule="evenodd" clip-rule="evenodd" d="M11.5 0C17.847 0 23 5.153 23 11.5C23 17.847 17.847 23 11.5 23C5.153 23 0 17.847 0 11.5C0 5.153 5.153 0 11.5 0ZM11.5 1C17.295 1 22 5.705 22 11.5C22 17.295 17.295 22 11.5 22C5.705 22 1 17.295 1 11.5C1 5.705 5.705 1 11.5 1ZM12 11H18V12H12V18H11V12H5V11H11V5H12V11Z" fill="#E6E6E6"/>
</svg>
